dist/img/partners/partner_1.svg

<svg width="198" height="75" viewBox="0 0 198 75" fill="none" xmlns="http://www.w3.org/2000/svg">
<path fill-rule="evenodd" clip-rule="evenodd" d="M191.697 49.9693C191.816 51.3279 192.9 53.0573 194.78 53.0573H195.878C196.305 53.0573 196.654 52.7074 196.654 52.28V28.0523H196.649C196.628 27.6441 196.291 27.3172 195.878 27.3172H192.473C192.06 27.3172 191.724 27.6441 191.703 28.0523H191.697V30.0209C189.61 27.443 186.32 26.3729 183.021 26.3729C175.522 26.3729 169.442 32.4705 169.442 39.9927C169.442 47.5154 175.522 53.6131 183.021 53.6131C186.32 53.6131 189.917 52.3299 191.697 49.9662V49.9693ZM183.034 48.8464C178.265 48.8464 174.398 44.8828 174.398 39.9927C174.398 35.1036 178.265 31.1398 183.034 31.1398C187.805 31.1398 191.671 35.1036 191.671 39.9927C191.671 44.8828 187.805 48.8464 183.034 48.8464Z" fill="#0D0E10"/>
<path fill-rule="evenodd" clip-rule="evenodd" d="M165.135 38.2657C165.135 31.1988 160.69 26.4313 153.602 26.4313C150.218 26.4313 147.445 28.3938 146.465 30.0795C146.253 28.7614 145.556 27.3758 143.392 27.3758H142.289C141.862 27.3758 141.514 27.7261 141.514 28.1535V50.0299C141.514 50.0306 141.514 50.0322 141.514 50.0333V52.3832H141.518C141.541 52.7907 141.878 53.118 142.289 53.118H145.695C145.748 53.118 145.799 53.1117 145.848 53.1021C145.871 53.0977 145.892 53.0888 145.914 53.0826C145.939 53.0748 145.965 53.0688 145.989 53.0588C146.02 53.0462 146.047 53.0294 146.075 53.0136C146.089 53.005 146.104 52.9992 146.117 52.9903C146.151 52.9683 146.182 52.9418 146.212 52.9148C146.217 52.9099 146.223 52.9065 146.228 52.9019C146.262 52.869 146.293 52.8328 146.32 52.7952C146.405 52.6778 146.457 52.5357 146.466 52.3832H146.47V38.0713C146.47 34.2759 149.538 31.1988 153.323 31.1988C157.107 31.1988 160.175 34.2759 160.175 38.0713L160.178 50.0341L160.179 50.0299C160.179 50.0405 160.181 50.0514 160.181 50.0627V52.3832H160.185C160.208 52.7907 160.544 53.118 160.956 53.118H164.362C164.415 53.118 164.465 53.1117 164.515 53.1021C164.535 53.0984 164.553 53.0903 164.573 53.0847C164.601 53.0766 164.63 53.0697 164.657 53.0588C164.684 53.0473 164.71 53.0311 164.736 53.0162C164.752 53.0072 164.769 53.0006 164.784 52.9903C164.816 52.9695 164.845 52.9445 164.873 52.9198C164.88 52.9131 164.888 52.9081 164.895 52.9013C164.927 52.8701 164.956 52.8363 164.982 52.801C164.984 52.7984 164.986 52.7962 164.988 52.7936C165.072 52.6773 165.124 52.5368 165.133 52.3852C165.133 52.3841 165.133 52.3832 165.133 52.3832H165.138L165.135 38.2657Z" fill="#0D0E10"/>
<path fill-rule="evenodd" clip-rule="evenodd" d="M129.664 49.9692C129.783 51.3279 130.868 53.0573 132.746 53.0573H133.845C134.272 53.0573 134.62 52.7073 134.62 52.2799V28.0523H134.616C134.594 27.6441 134.257 27.3172 133.845 27.3172H130.439C130.028 27.3172 129.691 27.6441 129.668 28.0523H129.664V30.0209C127.577 27.443 124.287 26.3729 120.988 26.3729C113.488 26.3729 107.409 32.4705 107.409 39.9928C107.409 47.5154 113.488 53.6132 120.988 53.6132C124.287 53.6132 127.883 52.33 129.664 49.9662L129.664 49.9692ZM121.001 48.8463C116.232 48.8463 112.365 44.8829 112.365 39.9928C112.365 35.1036 116.232 31.1398 121.001 31.1398C125.771 31.1398 129.637 35.1036 129.637 39.9928C129.637 44.8829 125.771 48.8463 121.001 48.8463Z" fill="#0D0E10"/>
<path fill-rule="evenodd" clip-rule="evenodd" d="M87.2673 46.4993C89.5411 48.0792 92.023 48.8466 94.408 48.8466C96.6801 48.8466 99.0292 47.6652 99.0292 45.6087C99.0292 42.8633 93.9107 42.4361 90.6948 41.3399C87.4782 40.2437 84.7078 37.9774 84.7078 34.3075C84.7078 28.6919 89.6966 26.3726 94.3529 26.3726C97.303 26.3726 100.347 27.3483 102.32 28.746C103 29.2626 102.586 29.8556 102.586 29.8556L100.702 32.5541C100.491 32.858 100.12 33.1206 99.589 32.7917C99.0575 32.4629 97.1936 31.1396 94.3529 31.1396C91.5119 31.1396 89.8006 32.4555 89.8006 34.0864C89.8006 36.0423 92.0248 36.6574 94.6298 37.324C99.1697 38.5514 104.122 40.0267 104.122 45.6087C104.122 50.5565 99.5077 53.6142 94.408 53.6142C90.5435 53.6142 87.2532 52.5093 84.4936 50.4782C83.9187 49.9011 84.3202 49.3653 84.3202 49.3653L86.1948 46.6804C86.5762 46.1785 87.057 46.3536 87.2673 46.4993Z" fill="#0D0E10"/>
<path fill-rule="evenodd" clip-rule="evenodd" d="M74.1733 49.9692C74.2924 51.3279 75.3768 53.0573 77.2553 53.0573H78.3546C78.7807 53.0573 79.1299 52.7073 79.1299 52.2799V28.0523H79.1251C79.1028 27.6441 78.7663 27.3172 78.3546 27.3172H74.9486C74.5367 27.3172 74.2002 27.6441 74.1774 28.0523H74.1733V30.0209C72.0865 27.443 68.7963 26.3729 65.497 26.3729C57.9976 26.3729 51.918 32.4705 51.918 39.9928C51.918 47.5154 57.9976 53.6132 65.497 53.6132C68.7963 53.6132 72.3919 52.33 74.1728 49.9662L74.1733 49.9692ZM65.5103 48.8463C60.7406 48.8463 56.874 44.8829 56.874 39.9928C56.874 35.1036 60.7406 31.1398 65.5103 31.1398C70.2797 31.1398 74.146 35.1036 74.146 39.9928C74.146 44.8829 70.2797 48.8463 65.5103 48.8463Z" fill="#0D0E10"/>
<path fill-rule="evenodd" clip-rule="evenodd" d="M32.8798 40.9189C27.833 40.9189 23.7416 45.0192 23.7416 50.0776C23.7416 55.1357 27.833 59.236 32.8798 59.236C37.9267 59.236 42.018 55.1357 42.018 50.0776C42.018 45.0192 37.9267 40.9189 32.8798 40.9189ZM9.13815 40.9197C4.09133 40.9197 0 45.0192 0 50.0776C0 55.1357 4.09133 59.236 9.13815 59.236C14.1852 59.236 18.2767 55.1357 18.2767 50.0776C18.2767 45.0192 14.1852 40.9197 9.13815 40.9197ZM30.147 29.4706C30.147 34.529 26.0559 38.6298 21.009 38.6298C15.962 38.6298 11.8709 34.529 11.8709 29.4706C11.8709 24.4133 15.962 20.3125 21.009 20.3125C26.0559 20.3125 30.147 24.4133 30.147 29.4706Z" fill="#F06A6A"/>
</svg>

<svg width="198" height="75" viewBox="0 0 198 75" fill="none" xmlns="http://www.w3.org/2000/svg"><path fill-rule="evenodd" clip-rule="evenodd" d="M191.697 49.97c.119 1.358 1.203 3.087 3.083 3.087h1.098c.427 0 .776-.35.776-.777V28.052h-.005a.775.775 0 00-.771-.735h-3.405a.774.774 0 00-.77.735h-.006v1.969c-2.087-2.578-5.377-3.648-8.676-3.648-7.499 0-13.579 6.098-13.579 13.62 0 7.522 6.08 13.62 13.579 13.62 3.299 0 6.896-1.283 8.676-3.647v.003zm-8.663-1.124c-4.769 0-8.636-3.963-8.636-8.853s3.867-8.853 8.636-8.853c4.771 0 8.637 3.964 8.637 8.853 0 4.89-3.866 8.853-8.637 8.853zm-17.899-10.58c0-7.067-4.445-11.835-11.533-11.835-3.384 0-6.157 1.963-7.137 3.648-.212-1.318-.909-2.703-3.073-2.703h-1.103a.778.778 0 00-.775.777v24.23h.004c.023.408.36.735.771.735h3.406a.793.793 0 00.153-.016c.023-.004.044-.013.066-.02.025-.007.051-.013.075-.023.031-.013.058-.03.086-.045.014-.009.029-.015.042-.024a.768.768 0 00.095-.075l.016-.013a.792.792 0 00.238-.519h.004V38.071c0-3.795 3.068-6.872 6.853-6.872 3.784 0 6.852 3.077 6.852 6.872l.003 11.963.001-.004.002.033v2.32h.004a.777.777 0 00.771.735h3.406a.802.802 0 00.153-.016c.02-.004.038-.012.058-.017.028-.008.057-.015.084-.026.027-.012.053-.028.079-.043.016-.009.033-.015.048-.026a.777.777 0 00.089-.07l.022-.019a.815.815 0 00.087-.1l.006-.007a.774.774 0 00.145-.409v-.002h.005l-.003-14.117zM129.664 49.97c.119 1.358 1.204 3.087 3.082 3.087h1.099c.427 0 .775-.35.775-.777V28.052h-.004a.776.776 0 00-.771-.735h-3.406a.777.777 0 00-.771.735h-.004v1.969c-2.087-2.578-5.377-3.648-8.676-3.648-7.5 0-13.579 6.098-13.579 13.62 0 7.522 6.079 13.62 13.579 13.62 3.299 0 6.895-1.283 8.676-3.647v.003zm-8.663-1.124c-4.769 0-8.636-3.963-8.636-8.853s3.867-8.853 8.636-8.853c4.77 0 8.636 3.964 8.636 8.853 0 4.89-3.866 8.853-8.636 8.853zM87.267 46.5c2.274 1.58 4.756 2.347 7.141 2.347 2.272 0 4.621-1.182 4.621-3.238 0-2.746-5.118-3.173-8.334-4.27-3.217-1.095-5.987-3.362-5.987-7.032 0-5.615 4.989-7.934 9.645-7.934 2.95 0 5.994.975 7.967 2.373.68.517.266 1.11.266 1.11l-1.884 2.698c-.211.304-.582.567-1.113.238-.531-.33-2.395-1.652-5.236-1.652-2.841 0-4.552 1.316-4.552 2.946 0 1.956 2.224 2.571 4.829 3.238 4.54 1.227 9.492 2.703 9.492 8.285 0 4.947-4.614 8.005-9.714 8.005-3.865 0-7.155-1.105-9.914-3.136-.575-.577-.174-1.113-.174-1.113l1.875-2.685c.381-.502.862-.326 1.072-.18zm-13.094 3.47c.12 1.358 1.204 3.087 3.082 3.087h1.1c.426 0 .775-.35.775-.777V28.052h-.005a.776.776 0 00-.77-.735h-3.406a.777.777 0 00-.772.735h-.004v1.969c-2.087-2.578-5.377-3.648-8.676-3.648-7.5 0-13.579 6.098-13.579 13.62 0 7.522 6.08 13.62 13.579 13.62 3.3 0 6.895-1.283 8.676-3.647v.003zm-8.663-1.124c-4.77 0-8.636-3.963-8.636-8.853s3.867-8.853 8.636-8.853c4.77 0 8.636 3.964 8.636 8.853 0 4.89-3.866 8.853-8.636 8.853z" fill="#0D0E10"/><path fill-rule="evenodd" clip-rule="evenodd" d="M32.88 40.919c-5.047 0-9.138 4.1-9.138 9.159 0 5.058 4.091 9.158 9.138 9.158s9.138-4.1 9.138-9.158c0-5.059-4.091-9.16-9.138-9.16zm-23.742 0C4.091 40.92 0 45.02 0 50.079c0 5.058 4.091 9.158 9.138 9.158s9.139-4.1 9.139-9.158c0-5.059-4.092-9.158-9.139-9.158zm21.009-11.448c0 5.058-4.091 9.159-9.138 9.159s-9.138-4.101-9.138-9.16c0-5.057 4.091-9.157 9.138-9.157s9.138 4.1 9.138 9.158z" fill="#F06A6A"/></svg>
